X:190
T:Billy Riley
M:3/4
L:1/8
Q:1/4=3D120
K:G
G2 G2 G2|G2 A2 GG|F2 A2 F2|
D4 A2|A4 AA|A4 B2|A6||
M:4/4
L:1/8
B4 c2A2|B4 c4|A2B2 c2A2|
M:3/4
L:1/8
B2 c3 d|d4 dd|c2 B2 A2|G6||
